X: 152
T: 153. Alle Menschen m\"ussen sterben
N: Derived from chor153.krn
C: Johann Sebastian Bach
%%abc-version 2.0
%%abcx-abcm2ps-target-version 5.9.1 (29 Sep 2008)
%%abc-creator hum2abc beta
%%abcx-conversion-date 2019/03/11 17:28:18
%%abc-edited-by Craig Stuart Sapp
%%humdrum-veritas 1186220488
%%humdrum-veritas-data 2775701990
%%
%%barnumbers 0
L: 1/4
M: C
%%staves [1 2 3 4]
V: 1 clef=treble
V: 2 clef=treble
V: 3 clef=treble-8
V: 4 clef=bass
K: D
[V:1] AdAB | 
[V:2] DDDD | 
[V:3] FF/G/AG/F/ | 
[V:4] D,B,,F,,G,, | 
[V:1] A3/G/F!fermata!F | 
[V:2] DCD!fermata!D | 
[V:3] E/D/ED!fermata!D | 
[V:4] A,,A,,D,,!fermata!D,, | 
[V:1] AAGF | 
[V:2] DD/C/ B,/C/D- | 
[V:3] FFGA | 
[V:4] D,D,E,F, | 
[V:1] E3/D/!fermata!D2 :|]  
[V:2] DC!fermata!D2 :|]  
[V:3] BA3//G//!fermata!F2 :|]  
[V:4] G,/E,/A,/A,,/!fermata!D,2 :|]  
[V:1] EEF/^G/A | 
[V:2] CCDC | 
[V:3] AAAA | 
[V:4] A,,A,,D,F,/E,/ | 
[V:1] A3/^G/A!fermata!A | 
[V:2] FE/D/C!fermata!C | 
[V:3] BBA!fermata!A | 
[V:4] D,E,!fermata!A,,2 | 
[V:1] B3/c/dd | 
[V:2] E/F/=GFF | 
[V:3] =G3/A/B2- | 
[V:4] E,2B,,/C,/D,/E,/ | 
[V:1] c3/c/B!fermata!B | 
[V:2] F3/E/D!fermata!D | 
[V:3] B^A!fermata!B2 | 
[V:4] F,2!fermata!B,,2 | 
[V:1] FFBA | 
[V:2] DDDC | 
[V:3] =AAG/F/E | 
[V:4] D,D,G,,A,, | 
[V:1] A^G!fermata!A2 | 
[V:2] DD!fermata!C2 | 
[V:3] D/F/E/D/!fermata!E2 | 
[V:4] B,,2!fermata!A,,2 | 
[V:1] BA=GF | 
[V:2] DD/C/ B,/C/D | 
[V:3] GFGA | 
[V:4] G,,D,E,F, | 
[V:1] E3/D/!fermata!D2 |]  
[V:2] DC!fermata!D2 |]  
[V:3] BA3//G//!fermata!F2 |]  
[V:4] G,/E,/A,/A,,/!fermata!D,2 |]  



